X:415
T: Napoleons Schicksal (134), S. 303f
N: T0303
O: Luxemburg
S: Singendes Volk, Esch-Alzette 1937, posth.]
N: Junglinster, fff Mutter des Autors vor 1900;
N: Straen, fff Witry, 13.12.1932
R: historische, Kriegs- und Soldatenlieder]
M: 4/4
L: 1/8
K: F
FG | A2Acc2BA | AGG2z2
GA | B2Bdd2cB | c4z2
F2 | d2def2ed | dcc2z2
fc | c2Acc2BB | A4z2
F2 | d2def2ed | dcc2z2
fc | c2Acc2BB | A4z2

